X:0943
M:C
L:1/8
Q:1/4=120
K:E Minor
e/f/|g>e```f<^d e2 B>e|d>B```Ad  FDAD|ef````ed  B^def|g>eB^d eBef|
     g<e```fd   e2 Be |f<c```d>A FDAf|gd````eB  d`GAB|GE`E^D E2E|]

